icons/ansi-a-portrait-16.svg

<?xml version="1.0" encoding="UTF-8"?><svg id="icons" xmlns="http://www.w3.org/2000/svg" viewBox="0 0 16 16"><defs><style>.cls-1{fill:none;}.cls-1,.cls-2,.cls-3{stroke-width:0px;}.cls-2{opacity:.25;}</style></defs><rect class="cls-1" width="16" height="16"/><path class="cls-3" d="M11.40039,0H2v5h1V1h7v4h4v10H3v-1h-1v2h13V3.59961l-3.59961-3.59961ZM14,4h-3V1h.31049l2.68951,2.68951v.31049Z"/><path class="cls-2" d="M10,3H3V1h7v2Z"/><path class="cls-3" d="M4.00012,6h-1.00024L0,13h1.00049l.85699-2h3.28503l.85699,2h1.00049l-2.99988-7ZM2.28601,10l1.21399-2.83301,1.21399,2.83301h-2.42798Z"/></svg>

<svg xmlns="http://www.w3.org/2000/svg" viewBox="0 0 16 16"><path stroke-width="0" fill="none" d="M0 0h16v16H0z"/><path d="M11.4 0H2v5h1V1h7v4h4v10H3v-1H2v2h13V3.6L11.4 0zM14 4h-3V1h.31L14 3.69V4z"/><path d="M10 3H3V1h7v2z" opacity=".25" stroke-width="0"/><path d="M4 6H3l-3 7h1l.857-2h3.286l.856 2H7L4 6zm-1.714 4L3.5 7.167 4.714 10H2.286z"/></svg>
